X: 42648
T: Whiskey In The Jar
R: barndance
M: 4/4
K: Cmajor
|F|:G3/2G1/2 GA GE EG|A3/2A1/2 AB A1/2E3/2 EG|A3/2A1/2 AB c2 BA|1 GG cB AE2F:|2 GG cB AEEC||
D3/2D1/2 DD D2 z2|E E3/2D1/2 E1/2F3/2G2 z|A A3/2G1/2 A1/2B3/2 c2A|GE DE C4|

